book-sync-outline.svg

<svg fill="currentColor" viewBox="0 0 24 24"><path d="M13.5 20c.31.75.76 1.42 1.32 2H6c-1.11 0-2-.89-2-2V4a2 2 0 0 1 2-2h12a2 2 0 0 1 2 2v7.03c-.16-.03-.33-.03-.5-.03-.5 0-1 .07-1.5.18V4h-5v8l-2.5-2.25L8 12V4H6v16zm5.5 0a2.5 2.5 0 0 1-2.5-2.5c0-.4.09-.78.26-1.12l-1.09-1.09c-.42.63-.67 1.39-.67 2.21 0 2.21 1.79 4 4 4V23l2.25-2.25L19 18.5zm0-6.5V12l-2.25 2.25L19 16.5V15a2.5 2.5 0 0 1 2.5 2.5c0 .4-.09.78-.26 1.12l1.09 1.09c.42-.63.67-1.39.67-2.21 0-2.21-1.79-4-4-4"/></svg>

<svg  viewBox="0 0 24 24" fill="currentColor"><path  d="M13.5 20C13.81 20.75 14.26 21.42 14.82 22H6C4.89 22 4 21.11 4 20V4C4 2.9 4.89 2 6 2H18C19.11 2 20 2.9 20 4V11.03C19.84 11 19.67 11 19.5 11C19 11 18.5 11.07 18 11.18V4H13V12L10.5 9.75L8 12V4H6V20H13.5M19 20C17.62 20 16.5 18.88 16.5 17.5C16.5 17.1 16.59 16.72 16.76 16.38L15.67 15.29C15.25 15.92 15 16.68 15 17.5C15 19.71 16.79 21.5 19 21.5V23L21.25 20.75L19 18.5V20M19 13.5V12L16.75 14.25L19 16.5V15C20.38 15 21.5 16.12 21.5 17.5C21.5 17.9 21.41 18.28 21.24 18.62L22.33 19.71C22.75 19.08 23 18.32 23 17.5C23 15.29 21.21 13.5 19 13.5Z"/></svg>
